icons/svg-base/cb-talent-pilot.svg

<?xml version="1.0" encoding="UTF-8" standalone="no"?>
<svg
   width="134px"
   height="100px"
   viewBox="0 0 110 100"
   version="1.1"
   id="svg877"
   sodipodi:docname="cb-talent-pilot.svg"
   inkscape:version="1.1.2 (b8e25be833, 2022-02-05)"
   xmlns:inkscape="http://www.inkscape.org/namespaces/inkscape"
   xmlns:sodipodi="http://sodipodi.sourceforge.net/DTD/sodipodi-0.dtd"
   xmlns="http://www.w3.org/2000/svg"
   xmlns:svg="http://www.w3.org/2000/svg">
  <defs
     id="defs881" />
  <sodipodi:namedview
     id="namedview879"
     pagecolor="#ffffff"
     bordercolor="#666666"
     borderopacity="1.0"
     inkscape:pageshadow="2"
     inkscape:pageopacity="0.0"
     inkscape:pagecheckerboard="0"
     showgrid="false"
     inkscape:zoom="8.34"
     inkscape:cx="66.966427"
     inkscape:cy="50"
     inkscape:window-width="1920"
     inkscape:window-height="1017"
     inkscape:window-x="-8"
     inkscape:window-y="-8"
     inkscape:window-maximized="1"
     inkscape:current-layer="svg877" />
  <path
     style="fill:#333a51;fill-opacity:1;fill-rule:nonzero;stroke:none"
     d="m 55.485565,26.192559 c 20.546874,0 37.472655,9.757813 37.472655,21.949219 0,8.539062 -9.671875,15.855465 -24.175781,19.515625 -3.628906,1.21875 -8.460937,-6.097657 -13.296874,-6.097657 -6.046875,0 -10.878907,7.316407 -15.714845,6.097657 C 26.473845,63.997243 16.80197,56.68084 16.80197,48.141778 c 0,-12.191406 16.925781,-21.949219 38.683595,-21.949219 z m 0,0"
     id="path862" />
  <path
     style="fill:#333a51;fill-opacity:1;fill-rule:nonzero;stroke:none"
     d="m 55.605469,62.261719 c 3.625,0 7.25,3.65625 7.25,7.316406 V 97.625 c -4.832031,3.66016 -10.878907,2.44141 -15.710938,0 V 69.578125 c 0,-3.660156 3.625,-7.316406 8.460938,-7.316406 z m 0,0"
     id="path864" />
  <path
     style="fill:#333a51;fill-opacity:1;fill-rule:nonzero;stroke:none"
     d="m 41.449378,36.508825 c 0,2.695312 -2.164063,4.878906 -4.835937,4.878906 -2.671876,0 -4.835938,-2.183594 -4.835938,-4.878906 0,-2.691407 2.164062,-4.875 4.835938,-4.875 2.671874,0 4.835937,2.183593 4.835937,4.875 z m 0,0"
     id="path866" />
  <path
     style="fill:#333a51;fill-opacity:1;fill-rule:nonzero;stroke:none"
     d="m 43.615642,46.046538 c 0,1.347656 -1.082031,2.4375 -2.417968,2.4375 -1.332032,0 -2.414063,-1.089844 -2.414063,-2.4375 0,-1.347656 1.082031,-2.4375 2.414063,-2.4375 1.335937,0 2.417968,1.089844 2.417968,2.4375 z m 0,0"
     id="path868" />
  <path
     style="fill:#00ff00;fill-opacity:1;fill-rule:nonzero;stroke:none"
     d="M 3.625,13.480469 C 1.207031,13.480469 0,12.261719 0,9.820312 0,8.601562 1.207031,6.164062 3.625,6.164062 h 27.804688 c 2.417968,0 3.625,2.4375 3.625,3.65625 0,2.441407 -1.207032,3.660157 -3.625,3.660157 z m 74.945312,0 c -1.207031,0 -3.625,-1.21875 -3.625,-3.660157 0,-1.21875 2.417969,-3.65625 3.625,-3.65625 H 106.375 c 2.41797,0 3.625,2.4375 3.625,3.65625 0,2.441407 -1.20703,3.660157 -3.625,3.660157 z m 0,0"
     id="path870" />
  <path
     style="fill:#333a51;fill-opacity:1;fill-rule:nonzero;stroke:none"
     d="m 7.253906,24.457031 c -2.417968,0 -3.628906,-1.222656 -3.628906,-3.660156 0,-1.21875 1.210938,-3.660156 3.628906,-3.660156 H 22.96875 c 2.414062,0 3.625,2.441406 3.625,3.660156 0,2.4375 -1.210938,3.660156 -3.625,3.660156 z m 79.777344,0 c -1.207031,0 -3.625,-1.222656 -3.625,-3.660156 0,-1.21875 2.417969,-3.660156 3.625,-3.660156 h 16.92578 c 1.20703,0 3.625,2.441406 3.625,3.660156 0,2.4375 -2.41797,3.660156 -3.625,3.660156 z m 0,0"
     id="path872" />
  <path
     style="fill:#333a51;fill-opacity:1;fill-rule:nonzero;stroke:none"
     d="m 12.089844,35.429688 c -2.417969,0 -3.628906,-1.21875 -3.628906,-3.65625 0,-1.21875 1.210937,-3.660157 3.628906,-3.660157 h 7.25 c 2.417968,0 3.628906,2.441407 3.628906,3.660157 0,2.4375 -1.210938,3.65625 -3.628906,3.65625 z m 78.570312,0 c -1.210937,0 -3.628906,-1.21875 -3.628906,-3.65625 0,-1.21875 2.417969,-3.660157 3.628906,-3.660157 h 8.460938 c 1.207036,0 3.624996,2.441407 3.624996,3.660157 0,2.4375 -2.41796,3.65625 -3.624996,3.65625 z m 0,0"
     id="path874" />
  <path
     style="fill:#00ff00;stroke-width:0.119904"
     d="M 17.985612,24.234647 C 17.31323,24.019348 16.830575,23.750969 16.522643,23.42117 15.683354,22.522277 15.45309,20.666294 16.034205,19.48423 c 0.45533,-0.926202 0.924985,-1.45028 1.668966,-1.862362 l 0.642153,-0.355681 h 8.752997 8.752998 l 0.637752,0.353286 c 1.228718,0.680654 1.990578,1.94127 1.996659,3.303788 0.0068,1.523059 -0.55937,2.565237 -1.701876,3.132737 l -0.572823,0.28453 -8.872902,0.02385 c -6.936104,0.01864 -8.977593,-0.0097 -9.352517,-0.129728 z"
     id="path1513"
     transform="translate(-12)" />
  <path
     style="fill:#00ff00;stroke-width:0.119904"
     d="m 98.128253,24.224248 c -2.024999,-0.745331 -3.142658,-2.772817 -2.367617,-4.294972 0.331477,-0.651011 1.814991,-2.134525 2.466002,-2.466002 0.50254,-0.25588 0.544156,-0.257027 9.232612,-0.254406 10.10668,0.0031 9.18391,-0.113708 10.64293,1.346647 1.03227,1.033208 1.38223,1.655882 1.38223,2.459331 0,1.207186 -1.1236,2.636252 -2.46833,3.13938 -0.64299,0.240576 -0.86333,0.246059 -9.55655,0.237805 -7.08662,-0.0067 -8.986519,-0.04089 -9.331277,-0.167783 z"
     id="path1552"
     transform="translate(-12)" />
  <path
     style="fill:#00ff00;stroke-width:0.119904"
     d="m 102.25944,35.310691 c -2.15815,-0.443894 -3.65872,-2.611005 -2.937261,-4.241982 0.300468,-0.679256 1.500831,-1.960988 2.342011,-2.500772 l 0.60851,-0.390479 h 4.55909 c 5.24047,0 4.9412,-0.05592 6.24929,1.167733 0.86618,0.810265 1.47001,1.690563 1.56619,2.283286 0.19209,1.183691 -0.84541,2.740658 -2.2622,3.394883 l -0.75437,0.348343 -4.43646,0.02075 c -2.44004,0.01141 -4.6607,-0.02538 -4.9348,-0.08176 z"
     id="path1591"
     transform="translate(-12)" />
  <path
     style="fill:#ffad00;stroke-width:0.119904;fill-opacity:1"
     d="M 14.115322,13.194014 C 13.349297,12.953415 12.827513,12.492015 12.450869,11.722182 12.004545,10.80993 11.970321,9.4212536 12.372617,8.547095 12.717268,7.7981966 13.608272,6.8614188 14.305801,6.5145978 L 14.868106,6.235012 H 29.496403 44.1247 l 0.685185,0.3364689 c 0.846944,0.4159026 1.562398,1.20799 1.900378,2.1039275 0.205922,0.5458686 0.245643,0.8630332 0.204941,1.6363426 -0.07182,1.364405 -0.541108,2.172022 -1.591463,2.738799 l -0.479616,0.258803 -15.107914,0.02289 c -12.362828,0.01873 -15.20112,-0.0064 -15.620889,-0.138228 z"
     id="path1630"
     transform="translate(-12)" />
  <path
     style="fill:#ffad00;fill-opacity:1;stroke-width:0.119904"
     d="m 89.176368,13.004499 c -1.24151,-0.62039 -2.18596,-1.95471 -2.18596,-3.0883251 0,-0.7995912 1.311271,-2.4871633 2.55038,-3.2822733 L 90.162421,6.235012 h 14.451169 14.45116 l 0.67872,0.3333072 c 0.8134,0.3994429 1.45967,1.0820363 1.86714,1.9720792 0.26541,0.5797187 0.29407,0.7754695 0.24791,1.6930466 -0.0728,1.446061 -0.52086,2.23764 -1.59473,2.817105 l -0.47962,0.258803 -14.93524,0.03179 -14.935246,0.03179 z"
     id="path2002"
     transform="translate(-12)" />
  <path
     style="fill:#ffad00;fill-opacity:1;stroke-width:0.119904"
     d="m 98.260615,24.170027 c -1.939913,-0.599664 -3.143492,-2.672779 -2.431338,-4.187877 0.264676,-0.563095 1.886439,-2.187102 2.432114,-2.43548 0.351218,-0.159865 1.143244,-0.200783 4.856119,-0.250879 2.44004,-0.03292 6.43285,-0.02443 8.8729,0.01888 3.94808,0.07007 4.48562,0.102785 4.88313,0.297168 0.54688,0.267428 1.91731,1.697795 2.24835,2.34668 0.68669,1.34603 -0.10292,3.069216 -1.82906,3.991582 l -0.50626,0.270521 -9.11271,0.02115 c -5.01199,0.01163 -9.24795,-0.02065 -9.413245,-0.07175 z"
     id="path2041"
     transform="translate(-12)" />
  <path
     style="fill:#ffad00;fill-opacity:1;stroke-width:0.119904"
     d="m 101.65492,35.059641 c -0.3428,-0.131788 -0.90408,-0.492091 -1.2473,-0.800674 -1.088257,-0.978437 -1.46077,-2.25706 -0.949527,-3.25918 0.323263,-0.633648 1.419417,-1.796271 2.201277,-2.33476 l 0.64352,-0.443207 4.60395,0.03777 4.60395,0.03777 0.54958,0.323091 c 0.66197,0.389161 1.93511,1.721907 2.26773,2.373893 0.68187,1.336582 -0.22453,3.091532 -2.0723,4.012314 l -0.61224,0.305091 -4.68269,-0.0062 c -4.38504,-0.0059 -4.72231,-0.02148 -5.30595,-0.245862 z"
     id="path2080"
     transform="translate(-12)" />
  <path
     style="fill:#ffad00;fill-opacity:1;stroke-width:0.119904"
     d="m 23.363373,35.305132 c -1.882846,-0.245429 -2.88497,-1.510614 -2.779908,-3.509642 0.07627,-1.45121 0.950146,-2.764275 2.234718,-3.357835 0.544824,-0.251747 0.703298,-0.260197 4.879659,-0.260197 4.280982,0 4.32171,0.0023 4.943291,0.283366 0.769413,0.347869 1.510694,1.130752 1.925692,2.033763 0.574302,1.249651 0.331411,3.032437 -0.530589,3.894436 -0.572447,0.572448 -1.059653,0.785716 -2.105076,0.921472 -1.044647,0.135655 -7.51703,0.131604 -8.567787,-0.0054 z"
     id="path2119"
     transform="translate(-12)" />
  <path
     style="fill:#ffad00;fill-opacity:1;stroke-width:0.119904"
     d="m 17.802084,24.09641 c -0.715252,-0.220489 -1.477954,-0.887189 -1.727003,-1.509626 -0.266613,-0.666331 -0.365807,-1.849761 -0.204762,-2.442899 0.249192,-0.917785 0.863034,-1.762891 1.676527,-2.308154 l 0.760275,-0.509592 h 8.783486 8.783485 l 0.714579,0.461855 c 1.30174,0.841355 1.938129,2.102342 1.801172,3.568977 -0.121729,1.303572 -0.629271,2.112053 -1.650877,2.629739 l -0.579914,0.293866 -8.906864,-0.0084 c -7.267004,-0.0068 -9.006881,-0.03918 -9.450104,-0.175814 z"
     id="path2158"
     transform="translate(-12)" />
  <path
     style="fill:#333a51;fill-opacity:1;fill-rule:nonzero;stroke:none"
     d="m 54.055252,94.073474 h 1.21094 c 21.75781,0 39.89062,-31.707031 39.89062,-53.660156 0,-21.949219 -18.13281,-40.24218785 -39.89062,-40.24218785 -21.75782,0 -39.89063,18.29296885 -39.89063,40.24218785 0,21.953125 16.92188,53.660156 38.67969,53.660156 z m 1.21094,-6.097656 c 18.1289,0 32.63671,-29.269532 32.63671,-47.5625 0,-18.292969 -14.50781,-34.144532 -32.63671,-34.144532 -18.13282,0 -33.84766,15.851563 -33.84766,34.144532 0,18.292968 15.71484,47.5625 33.84766,47.5625 z m 0,0"
     id="path860" />
</svg>

<?xml version="1.0" encoding="UTF-8"?>
<svg xmlns="http://www.w3.org/2000/svg" xmlns:xlink="http://www.w3.org/1999/xlink" width="134px" height="100px" viewBox="0 0 110 100" version="1.1">
<g id="surface1">
<path style=" stroke:none;fill-rule:nonzero;fill:rgb(20.392157%,23.921569%,32.549021%);fill-opacity:1;" d="M 54.394531 93.96875 L 55.605469 93.96875 C 77.363281 93.96875 95.496094 62.261719 95.496094 40.308594 C 95.496094 18.359375 77.363281 0.0664062 55.605469 0.0664062 C 33.847656 0.0664062 15.714844 18.359375 15.714844 40.308594 C 15.714844 62.261719 32.636719 93.96875 54.394531 93.96875 Z M 55.605469 87.871094 C 73.734375 87.871094 88.242188 58.601562 88.242188 40.308594 C 88.242188 22.015625 73.734375 6.164062 55.605469 6.164062 C 37.472656 6.164062 21.757812 22.015625 21.757812 40.308594 C 21.757812 58.601562 37.472656 87.871094 55.605469 87.871094 Z M 55.605469 87.871094 "/>
<path style=" stroke:none;fill-rule:nonzero;fill:rgb(20.392157%,23.921569%,32.549021%);fill-opacity:1;" d="M 55.605469 20.796875 C 76.152344 20.796875 93.078125 30.554688 93.078125 42.746094 C 93.078125 51.285156 83.40625 58.601562 68.902344 62.261719 C 65.273438 63.480469 60.441406 56.164062 55.605469 56.164062 C 49.558594 56.164062 44.726562 63.480469 39.890625 62.261719 C 26.59375 58.601562 16.921875 51.285156 16.921875 42.746094 C 16.921875 30.554688 33.847656 20.796875 55.605469 20.796875 Z M 55.605469 20.796875 "/>
<path style=" stroke:none;fill-rule:nonzero;fill:rgb(20.392157%,23.921569%,32.549021%);fill-opacity:1;" d="M 55.605469 62.261719 C 59.230469 62.261719 62.855469 65.917969 62.855469 69.578125 L 62.855469 97.625 C 58.023438 101.285156 51.976562 100.066406 47.144531 97.625 L 47.144531 69.578125 C 47.144531 65.917969 50.769531 62.261719 55.605469 62.261719 Z M 55.605469 62.261719 "/>
<path style=" stroke:none;fill-rule:nonzero;fill:rgb(20.392157%,23.921569%,32.549021%);fill-opacity:1;" d="M 39.890625 35.429688 C 39.890625 38.125 37.726562 40.308594 35.054688 40.308594 C 32.382812 40.308594 30.21875 38.125 30.21875 35.429688 C 30.21875 32.738281 32.382812 30.554688 35.054688 30.554688 C 37.726562 30.554688 39.890625 32.738281 39.890625 35.429688 Z M 39.890625 35.429688 "/>
<path style=" stroke:none;fill-rule:nonzero;fill:rgb(20.392157%,23.921569%,32.549021%);fill-opacity:1;" d="M 41.097656 46.40625 C 41.097656 47.753906 40.015625 48.84375 38.679688 48.84375 C 37.347656 48.84375 36.265625 47.753906 36.265625 46.40625 C 36.265625 45.058594 37.347656 43.96875 38.679688 43.96875 C 40.015625 43.96875 41.097656 45.058594 41.097656 46.40625 Z M 41.097656 46.40625 "/>
<path style=" stroke:none;fill-rule:nonzero;fill:rgb(20.392157%,23.921569%,32.549021%);fill-opacity:1;" d="M 3.625 13.480469 C 1.207031 13.480469 0 12.261719 0 9.820312 C 0 8.601562 1.207031 6.164062 3.625 6.164062 L 31.429688 6.164062 C 33.847656 6.164062 35.054688 8.601562 35.054688 9.820312 C 35.054688 12.261719 33.847656 13.480469 31.429688 13.480469 Z M 78.570312 13.480469 C 77.363281 13.480469 74.945312 12.261719 74.945312 9.820312 C 74.945312 8.601562 77.363281 6.164062 78.570312 6.164062 L 106.375 6.164062 C 108.792969 6.164062 110 8.601562 110 9.820312 C 110 12.261719 108.792969 13.480469 106.375 13.480469 Z M 78.570312 13.480469 "/>
<path style=" stroke:none;fill-rule:nonzero;fill:rgb(20.392157%,23.921569%,32.549021%);fill-opacity:1;" d="M 7.253906 24.457031 C 4.835938 24.457031 3.625 23.234375 3.625 20.796875 C 3.625 19.578125 4.835938 17.136719 7.253906 17.136719 L 22.96875 17.136719 C 25.382812 17.136719 26.59375 19.578125 26.59375 20.796875 C 26.59375 23.234375 25.382812 24.457031 22.96875 24.457031 Z M 87.03125 24.457031 C 85.824219 24.457031 83.40625 23.234375 83.40625 20.796875 C 83.40625 19.578125 85.824219 17.136719 87.03125 17.136719 L 103.957031 17.136719 C 105.164062 17.136719 107.582031 19.578125 107.582031 20.796875 C 107.582031 23.234375 105.164062 24.457031 103.957031 24.457031 Z M 87.03125 24.457031 "/>
<path style=" stroke:none;fill-rule:nonzero;fill:rgb(20.392157%,23.921569%,32.549021%);fill-opacity:1;" d="M 12.089844 35.429688 C 9.671875 35.429688 8.460938 34.210938 8.460938 31.773438 C 8.460938 30.554688 9.671875 28.113281 12.089844 28.113281 L 19.339844 28.113281 C 21.757812 28.113281 22.96875 30.554688 22.96875 31.773438 C 22.96875 34.210938 21.757812 35.429688 19.339844 35.429688 Z M 90.660156 35.429688 C 89.449219 35.429688 87.03125 34.210938 87.03125 31.773438 C 87.03125 30.554688 89.449219 28.113281 90.660156 28.113281 L 99.121094 28.113281 C 100.328125 28.113281 102.746094 30.554688 102.746094 31.773438 C 102.746094 34.210938 100.328125 35.429688 99.121094 35.429688 Z M 90.660156 35.429688 "/>
</g>
</svg>
